X:1
T:A Fig for a Kiss
M:9/8
L:1/8
R:slipjig
K:Em
G2B E2B BAG | F2A D2A AGF | G2B E2B BAG | BdB AGF E3 :|
g2e g2e edB| f2d d^cd fed | g2e g2e edB | dBG GBd e2f|
g2e g2e edB |f2d d^cd fed | gfe fed edB | BdB AGF E3 |]
